svg/free/crop.svg

<svg version="1.1" xmlns="http://www.w3.org/2000/svg" width="24" height="24" viewBox="0 0 24 24">
<title>crop</title>
<path d="M22.189 0.75l-1.875 1.875h1.061v1.061l1.875-1.875v-1.061h-1.061z"></path>
<path d="M4.125 19.875h1.061l14.689-14.689v-1.061h-1.061l-14.689 14.689v1.061z"></path>
<path d="M21.375 19.875h1.875v1.5h-1.875v-1.5z"></path>
<path d="M5.186 19.875h-1.061v-15.75h-1.5v17.25h17.25v-1.5h-14.689z"></path>
<path d="M2.625 0.75h1.5v1.875h-1.5v-1.875z"></path>
<path d="M20.314 2.625h-19.564v1.5h19.125v19.125h1.5v-20.625h-1.061z"></path>
</svg>

<svg xmlns="http://www.w3.org/2000/svg" width="24" height="24" viewBox="0 0 24 24"><path d="M22.189.75l-1.875 1.875h1.061v1.061l1.875-1.875V.75h-1.061zM4.125 19.875h1.061L19.875 5.186V4.125h-1.061L4.125 18.814v1.061zM21.375 19.875h1.875v1.5h-1.875v-1.5z"/><path d="M5.186 19.875H4.125V4.125h-1.5v17.25h17.25v-1.5H5.186zM2.625.75h1.5v1.875h-1.5V.75z"/><path d="M20.314 2.625H.75v1.5h19.125V23.25h1.5V2.625h-1.061z"/></svg>
